X: 031303
T: Ceangulla Slide (b)
S: "Johnny O'Leary of Sliabh Luachra" (#308b)
Z: B.Black
L: 1/8
M: 12/8
Q: 350
R: slide
K: G
G2D DED G2F G2B|A2B cBA BAG EED|
G2D DED G/F/GG G2A|BAB d/c/dB A3 G3 :|
c3 e2d B2d edB|A2B cBA BAG E2D|
GED DED G2F G2A|BAB d/c/dB A3 G3 :|
